lib/logotmp/nrk-logo-nrk-nordland-on-dark.svg

<svg width="111" height="24" viewBox="0 0 111 24" fill="none" xmlns="http://www.w3.org/2000/svg">
<path d="M0 17.9975V5.99859H4V17.9975H0ZM9.24381 7.90828L11.5081 17.9975H7.19917L4.49549 5.99859H6.91217C7.46635 5.9914 8.00406 6.18675 8.4245 6.54789C8.84562 6.89388 9.08495 7.37419 9.24381 7.90828ZM12 17.9975V5.99859H16V17.9975H12ZM19.0105 10.5616C18.5862 10.5657 18.1687 10.4547 17.8025 10.2405C17.4412 10.0316 17.1411 9.73146 16.9323 9.37009C16.7178 9.00383 16.6068 8.58626 16.611 8.16181C16.6061 7.73996 16.7172 7.32488 16.9323 6.96192C17.1433 6.60449 17.4431 6.30759 17.8025 6.10002C18.1689 5.886 18.5862 5.77501 19.0105 5.77888C19.4322 5.77434 19.8471 5.88543 20.2102 6.10002C20.566 6.30941 20.8626 6.60606 21.072 6.96192C21.2868 7.32498 21.3979 7.73999 21.3933 8.16181C21.3973 8.58622 21.2863 9.00372 21.072 9.37009C20.8649 9.72987 20.5679 10.0298 20.2102 10.2405C19.8471 10.4555 19.4324 10.5666 19.0105 10.5616ZM22 17.9975V5.99859H26V17.9975H22ZM30.9737 12.5557C30.9848 12.5674 31.0693 12.7054 31.2272 12.9698C31.3851 13.2342 31.5906 13.5722 31.8439 13.9838C32.0974 14.3952 32.3649 14.8318 32.6463 15.2935C32.9278 15.7552 33.1926 16.1919 33.4408 16.6033C33.6881 17.0147 33.9697 17.4794 34.2857 17.9975H29.9598C29.6893 17.5581 29.4441 17.161 29.2245 16.8061C29.0048 16.4512 28.7713 16.0681 28.5238 15.6569C28.2758 15.246 28.0306 14.846 27.7882 14.457C27.5458 14.0679 27.3375 13.7271 27.1633 13.4346C26.9883 13.1418 26.8671 12.9446 26.7997 12.843C26.6325 12.5909 26.5336 12.2998 26.5127 11.998C26.5294 11.7084 26.6226 11.4285 26.7828 11.1866C26.8503 11.0739 26.9743 10.8739 27.1545 10.5866C27.3348 10.2993 27.546 9.95855 27.7882 9.56422C28.0304 9.16989 28.2756 8.7671 28.5238 8.35587C28.772 7.94464 29.0055 7.55873 29.2245 7.1982C29.4445 6.83805 29.6897 6.43808 29.9598 5.99831H34.2857L30.9396 11.457C30.8361 11.6191 30.7777 11.8058 30.7706 11.998C30.7818 12.1998 30.8528 12.3938 30.9737 12.5557Z" fill="white"/>
<g clip-path="url(#clip0_5918_1703)">
<path d="M47.5458 15.1278L40.368 6.005H39V17.9961H40.5876V8.86766L47.7822 17.9961H49.1502V6.005H47.5458V15.1278ZM59.4693 11.2659C59.8184 11.9246 59.9929 12.6986 59.9929 13.5881C59.9929 14.5226 59.8043 15.3333 59.4271 16.0201C59.0499 16.7069 58.5236 17.2361 57.848 17.6077C57.1724 17.9792 56.3956 18.165 55.5173 18.165C54.6391 18.165 53.9298 17.9905 53.288 17.6414C52.6462 17.2924 52.1536 16.7829 51.8102 16.113C51.4668 15.4431 51.2951 14.6465 51.2951 13.7232C51.2951 12.8 51.4781 12.0006 51.844 11.325C52.2099 10.6494 52.7222 10.1259 53.3809 9.75433C54.0396 9.38277 54.808 9.197 55.6862 9.197C56.5644 9.197 57.3273 9.37714 57.9747 9.73744C58.6221 10.0977 59.1203 10.6072 59.4693 11.2659ZM58.2027 13.6219C58.2027 13.1603 58.152 12.7408 58.0507 12.3637C57.9493 11.9865 57.7945 11.6628 57.5862 11.3926C57.3779 11.1223 57.119 10.9168 56.8093 10.7761C56.4997 10.6354 56.131 10.565 55.7031 10.565C55.1627 10.565 54.6982 10.6776 54.3098 10.9028C53.9213 11.128 53.6201 11.4657 53.4062 11.9161C53.1923 12.3665 53.0853 12.9351 53.0853 13.6219C53.0853 14.3087 53.1923 14.9054 53.4062 15.3783C53.6201 15.8512 53.9129 16.2059 54.2844 16.4423C54.656 16.6788 55.0951 16.797 55.6018 16.797C56.1084 16.797 56.5588 16.6816 56.9529 16.4508C57.347 16.22 57.6538 15.8681 57.8733 15.3952C58.0929 14.9223 58.2027 14.3312 58.2027 13.6219ZM65.6169 9.32366C65.3016 9.40811 65.0033 9.53759 64.7218 9.71211C64.4403 9.88662 64.1757 10.0977 63.928 10.3454C63.8886 10.3848 63.8492 10.4299 63.8098 10.4721V9.21388L62.0871 9.46722V17.9961H63.8098V11.6149C63.9393 11.5248 64.0716 11.4404 64.2067 11.3672C64.3812 11.2715 64.5557 11.1899 64.7302 11.1223C64.9047 11.0548 65.0821 10.9957 65.2622 10.945C65.4424 10.8943 65.631 10.8577 65.828 10.8352C66.025 10.8127 66.2305 10.8071 66.4444 10.8183L66.6471 9.23077C66.2756 9.20825 65.9321 9.23922 65.6169 9.32366ZM73.7911 5.49833L75.5138 5.26188V17.9961H74.112L73.9009 17.2164C73.7742 17.3093 73.6476 17.3966 73.5209 17.4726C73.1381 17.709 72.7468 17.8835 72.3471 17.9961C71.9474 18.1087 71.5224 18.165 71.072 18.165C70.2951 18.165 69.628 17.9933 69.0707 17.6499C68.5133 17.3065 68.0855 16.8195 67.7871 16.189C67.4887 15.5585 67.3396 14.8097 67.3396 13.9428C67.3396 12.9294 67.5366 12.0709 67.9307 11.3672C68.3247 10.6635 68.8455 10.1259 69.4929 9.75433C70.1403 9.38277 70.8412 9.197 71.5956 9.197C72.0234 9.197 72.4147 9.23359 72.7693 9.30677C73.124 9.37996 73.4477 9.47285 73.7404 9.58544C73.7573 9.59107 73.7742 9.59951 73.7911 9.60796V5.49833ZM73.7911 16.1074V10.9028C73.7038 10.8718 73.611 10.8352 73.5293 10.8099C73.2647 10.7254 73.003 10.6635 72.744 10.6241C72.485 10.5847 72.2148 10.565 71.9333 10.565C71.3479 10.565 70.844 10.686 70.4218 10.9281C69.9996 11.1702 69.6759 11.5248 69.4507 11.9921C69.2255 12.4594 69.1129 13.042 69.1129 13.7401C69.1129 14.4382 69.2142 14.9983 69.4169 15.4543C69.6196 15.9103 69.9123 16.2481 70.2951 16.4677C70.6779 16.6872 71.1396 16.797 71.68 16.797C72.0403 16.797 72.4428 16.7154 72.8876 16.5521C73.1719 16.448 73.473 16.296 73.7911 16.1074ZM80.8084 16.7548C80.7578 16.7604 80.6987 16.7632 80.6311 16.7632C80.4847 16.7632 80.3609 16.7407 80.2596 16.6957C80.1582 16.6506 80.0738 16.5803 80.0062 16.4846C79.9387 16.3888 79.8908 16.2678 79.8627 16.1214C79.8345 15.9751 79.8204 15.8006 79.8204 15.5979V5.245L78.0978 5.49833V16.3579C78.0978 16.6844 78.1428 16.9631 78.2329 17.1939C78.323 17.4247 78.4524 17.6133 78.6213 17.7597C78.7902 17.906 78.9901 18.0102 79.2209 18.0721C79.4517 18.134 79.7022 18.165 79.9724 18.165C80.1076 18.165 80.237 18.1594 80.3609 18.1481C80.4847 18.1368 80.6058 18.12 80.724 18.0974C80.8422 18.0749 80.9407 18.0524 81.0196 18.0299L81.1884 16.6957C81.1209 16.7069 81.0533 16.7182 80.9858 16.7294C80.9182 16.7407 80.8591 16.7491 80.8084 16.7548ZM90.4604 16.9152C90.5505 16.904 90.6462 16.8814 90.7476 16.8477L90.5618 17.9792C90.5055 18.0017 90.4407 18.0214 90.3676 18.0383C90.2944 18.0552 90.2127 18.0749 90.1227 18.0974C90.0326 18.12 89.9397 18.134 89.844 18.1397C89.7483 18.1453 89.6498 18.1481 89.5484 18.1481C89.1881 18.1481 88.8673 18.089 88.5858 17.9708C88.3043 17.8526 88.0847 17.6611 87.9271 17.3966C87.8427 17.2558 87.7836 17.0897 87.7441 16.8983C87.6372 17.0222 87.5274 17.1432 87.412 17.253C87.1024 17.5457 86.7477 17.7709 86.348 17.9286C85.9483 18.0862 85.4726 18.165 84.9209 18.165C84.3241 18.165 83.8259 18.0524 83.4262 17.8272C83.0265 17.602 82.7281 17.3065 82.5311 16.9405C82.3341 16.5746 82.2356 16.1777 82.2356 15.7499C82.2356 15.2995 82.3622 14.8857 82.6156 14.5086C82.8689 14.1314 83.2545 13.8189 83.7724 13.5712C84.2904 13.3235 84.9434 13.1771 85.7316 13.1321L87.7047 12.9998V12.5748C87.7047 12.2483 87.6738 11.964 87.6062 11.7219C87.5387 11.4798 87.4261 11.28 87.2684 11.1223C87.1108 10.9647 86.8941 10.8465 86.6182 10.7677C86.3424 10.6888 86.0018 10.6494 85.5964 10.6494C85.3713 10.6494 85.1433 10.6579 84.9124 10.6748C84.6816 10.6917 84.448 10.7226 84.2116 10.7677C83.9751 10.8127 83.7302 10.869 83.4769 10.9366C83.2236 11.0041 82.9561 11.0886 82.6747 11.1899L82.8773 9.75433C83.1588 9.64174 83.4544 9.54322 83.764 9.45877C84.0736 9.37433 84.403 9.30959 84.752 9.26455C85.101 9.21951 85.4557 9.197 85.816 9.197C86.3114 9.197 86.7561 9.24203 87.1502 9.33211C87.5443 9.42218 87.8849 9.55166 88.172 9.72055C88.4591 9.88944 88.6927 10.0977 88.8729 10.3454C89.053 10.5931 89.1881 10.8803 89.2782 11.2068C89.3683 11.5333 89.4133 11.8936 89.4133 12.2877L89.3796 15.7668C89.3683 16.1834 89.4302 16.4817 89.5653 16.6619C89.7004 16.842 89.92 16.9321 90.224 16.9321C90.2916 16.9321 90.3704 16.9265 90.4604 16.9152ZM87.6935 15.9075L87.7019 14.2299H86.2241C85.6724 14.2299 85.2333 14.2749 84.9068 14.365C84.5803 14.4551 84.3439 14.5958 84.1975 14.7872C84.0511 14.9786 83.9779 15.2432 83.9779 15.581C83.9779 15.84 84.0342 16.0623 84.1468 16.2481C84.2594 16.4339 84.4255 16.5774 84.645 16.6788C84.8646 16.7801 85.132 16.8308 85.4473 16.8308C85.695 16.8308 85.9342 16.8083 86.165 16.7632C86.3959 16.7182 86.6154 16.645 86.8237 16.5437C87.032 16.4423 87.229 16.3185 87.4148 16.1721C87.5133 16.0933 87.6062 16.0032 87.6963 15.9075H87.6935ZM98.9724 9.55166C98.5446 9.31522 98.0041 9.197 97.3511 9.197C96.867 9.197 96.3856 9.27299 95.9071 9.42499C95.4286 9.57699 94.9754 9.79374 94.5476 10.0752C94.3843 10.1822 94.2267 10.3004 94.0747 10.4214V9.21388L92.352 9.46722V17.9961H94.0747V11.5811C94.2407 11.4854 94.4096 11.3954 94.5898 11.3166C94.8319 11.2096 95.0739 11.1167 95.316 11.0379C95.5581 10.9591 95.8001 10.9 96.0422 10.8606C96.2843 10.8211 96.5179 10.8014 96.7431 10.8014C97.0584 10.8014 97.3286 10.8437 97.5538 10.9281C97.779 11.0126 97.9647 11.1392 98.1111 11.3081C98.2575 11.477 98.3644 11.6909 98.432 11.9499C98.4996 12.2088 98.5333 12.5128 98.5333 12.8619V17.9961H100.256V12.5072C100.256 11.7416 100.149 11.1167 99.9351 10.6326C99.7212 10.1484 99.4003 9.78811 98.9724 9.55166ZM110.44 5.26188V17.9961H109.038L108.827 17.2164C108.7 17.3093 108.574 17.3966 108.447 17.4726C108.064 17.709 107.673 17.8835 107.273 17.9961C106.874 18.1087 106.449 18.165 105.998 18.165C105.221 18.165 104.554 17.9933 103.997 17.6499C103.44 17.3065 103.012 16.8195 102.713 16.189C102.415 15.5585 102.266 14.8097 102.266 13.9428C102.266 12.9294 102.463 12.0709 102.857 11.3672C103.251 10.6635 103.772 10.1259 104.419 9.75433C105.067 9.38277 105.767 9.197 106.522 9.197C106.95 9.197 107.341 9.23359 107.696 9.30677C108.05 9.37996 108.374 9.47285 108.667 9.58544C108.684 9.59107 108.7 9.59951 108.717 9.60796V5.49833L110.44 5.26188ZM108.717 16.1074V10.9028C108.63 10.8718 108.537 10.8352 108.456 10.8099C108.191 10.7254 107.929 10.6635 107.67 10.6241C107.411 10.5847 107.141 10.565 106.86 10.565C106.274 10.565 105.77 10.686 105.348 10.9281C104.926 11.1702 104.602 11.5248 104.377 11.9921C104.152 12.4594 104.039 13.042 104.039 13.7401C104.039 14.4382 104.14 14.9983 104.343 15.4543C104.546 15.9103 104.839 16.2481 105.221 16.4677C105.604 16.6872 106.066 16.797 106.606 16.797C106.967 16.797 107.369 16.7154 107.814 16.5521C108.098 16.448 108.399 16.296 108.717 16.1074Z" fill="#9FDAF5"/>
</g>
<defs>
<clipPath id="clip0_5918_1703">
<rect width="72" height="14" fill="white" transform="translate(39 5)"/>
</clipPath>
</defs>
</svg>

<svg xmlns="http://www.w3.org/2000/svg" viewBox="0 0 111 24"><path fill="#fff" d="M0 17.997V6h4v11.998H0ZM9.244 7.908l2.264 10.09H7.2l-2.704-12h2.417a2.276 2.276 0 0 1 1.513.55c.42.346.66.826.819 1.36ZM12 17.998v-12h4v12h-4Zm7.01-7.436a2.382 2.382 0 0 1-2.4-2.4 2.301 2.301 0 0 1 .322-1.2A2.41 2.41 0 0 1 20.21 6.1c.356.21.653.506.862.862.215.363.326.778.321 1.2a2.35 2.35 0 0 1-.321 1.208 2.4 2.4 0 0 1-.862.87 2.3 2.3 0 0 1-1.2.322ZM22 17.997V6h4v11.998h-4Zm8.974-5.441c.01.011.095.15.253.414s.364.602.617 1.014a315.936 315.936 0 0 1 1.597 2.62c.247.41.529.875.845 1.393H29.96c-.27-.439-.516-.836-.736-1.19-.22-.356-.453-.739-.7-1.15-.248-.411-.493-.811-.736-1.2-.242-.39-.45-.73-.625-1.022-.175-.293-.296-.49-.363-.592a1.747 1.747 0 0 1-.287-.845c.016-.29.11-.57.27-.811.067-.113.191-.313.371-.6a182.106 182.106 0 0 0 1.37-2.23l.7-1.159.736-1.2h4.326l-3.346 5.459a1.08 1.08 0 0 0-.17.541c.012.202.083.396.204.558Z"/><g clip-path="url(#a)"><path fill="#9FDAF5" d="m47.546 15.128-7.178-9.123H39v11.991h1.588V8.868l7.194 9.128h1.368V6.005h-1.604v9.123Zm11.923-3.862c.35.659.524 1.433.524 2.322 0 .935-.189 1.745-.566 2.432a3.934 3.934 0 0 1-1.579 1.588c-.676.371-1.452.557-2.33.557-.879 0-1.588-.174-2.23-.524a3.525 3.525 0 0 1-1.478-1.528c-.343-.67-.515-1.466-.515-2.39 0-.923.183-1.722.549-2.398.366-.676.878-1.2 1.537-1.57.659-.372 1.427-.558 2.305-.558.878 0 1.641.18 2.289.54.647.36 1.145.87 1.494 1.529Zm-1.266 2.356c0-.462-.051-.881-.152-1.258a2.732 2.732 0 0 0-.465-.971 2.023 2.023 0 0 0-.777-.617c-.31-.14-.678-.211-1.106-.211-.54 0-1.005.113-1.393.338-.389.225-.69.563-.904 1.013-.214.45-.32 1.02-.32 1.706 0 .687.106 1.283.32 1.756.214.473.507.828.878 1.064.372.237.811.355 1.318.355.506 0 .957-.115 1.35-.346.395-.231.702-.583.921-1.056.22-.473.33-1.064.33-1.773Zm7.414-4.298a3.321 3.321 0 0 0-.895.388 4.404 4.404 0 0 0-.794.633c-.04.04-.079.085-.118.127V9.214l-1.723.253v8.53h1.723v-6.382a4.22 4.22 0 0 1 .92-.493c.175-.067.352-.126.532-.177a3.59 3.59 0 0 1 1.182-.127l.203-1.587a3.214 3.214 0 0 0-1.03.093Zm8.174-3.826 1.723-.236v12.734h-1.402l-.211-.78c-.127.093-.253.18-.38.257-.383.236-.774.41-1.174.523-.4.113-.825.169-1.275.169-.777 0-1.444-.172-2.001-.515a3.353 3.353 0 0 1-1.284-1.461c-.298-.63-.447-1.38-.447-2.246 0-1.014.197-1.872.59-2.576.395-.704.915-1.241 1.563-1.613a4.153 4.153 0 0 1 2.103-.557 5.818 5.818 0 0 1 2.195.411v-4.11Zm0 10.61v-5.205c-.087-.031-.18-.068-.262-.093a5.103 5.103 0 0 0-1.596-.245c-.585 0-1.089.121-1.511.363a2.382 2.382 0 0 0-.971 1.064c-.225.467-.338 1.05-.338 1.748s.101 1.258.304 1.714c.203.456.495.794.878 1.014.383.22.845.329 1.385.329.36 0 .763-.082 1.208-.245.284-.104.585-.256.903-.445Zm7.017.647c-.05.005-.11.008-.177.008a.913.913 0 0 1-.371-.067.61.61 0 0 1-.254-.211.927.927 0 0 1-.143-.364 2.806 2.806 0 0 1-.043-.523V5.245l-1.722.253v10.86c0 .326.045.605.135.836.09.23.22.42.388.566.17.146.37.25.6.312.23.062.481.093.751.093a3.746 3.746 0 0 0 1.047-.135l.17-1.334c-.068.01-.136.022-.203.033-.068.012-.127.02-.178.026Zm9.652.16c.09-.011.186-.034.288-.067l-.186 1.131a1.338 1.338 0 0 1-.194.06 14.04 14.04 0 0 0-.245.058c-.09.023-.183.037-.279.043a5.061 5.061 0 0 1-.296.008c-.36 0-.68-.059-.962-.177a1.364 1.364 0 0 1-.659-.574 1.584 1.584 0 0 1-.183-.499 4.97 4.97 0 0 1-.332.355c-.31.293-.664.518-1.064.676-.4.157-.875.236-1.427.236-.597 0-1.095-.113-1.495-.338-.4-.225-.698-.52-.895-.887a2.472 2.472 0 0 1-.295-1.19c0-.45.126-.864.38-1.241.253-.378.638-.69 1.156-.938.518-.248 1.171-.394 1.96-.439L87.705 13v-.425c0-.327-.031-.611-.099-.853a1.337 1.337 0 0 0-.338-.6c-.157-.157-.374-.275-.65-.354a3.77 3.77 0 0 0-1.022-.119 9.37 9.37 0 0 0-.684.026c-.23.017-.464.048-.7.093a10.372 10.372 0 0 0-1.537.422l.202-1.436c.282-.112.577-.21.887-.295.31-.085.639-.15.988-.194a8.305 8.305 0 0 1 1.064-.068c.495 0 .94.045 1.334.135.394.09.735.22 1.022.389.287.168.52.377.7.624.181.248.316.535.406.862.09.326.135.687.135 1.08l-.033 3.48c-.012.416.05.715.185.895.135.18.355.27.659.27.068 0 .146-.005.236-.017Zm-2.766-1.007.008-1.678h-1.478c-.552 0-.99.045-1.317.135-.327.09-.563.23-.71.422-.146.192-.22.456-.22.794 0 .259.057.481.17.667.112.186.278.33.498.43.22.102.487.153.802.153.248 0 .487-.023.718-.068.23-.045.45-.118.659-.22a2.757 2.757 0 0 0 .873-.636h-.004Zm11.278-6.356c-.427-.237-.968-.355-1.62-.355-.485 0-.966.076-1.445.228a5.485 5.485 0 0 0-1.36.65c-.163.107-.32.225-.472.346V9.214l-1.723.253v8.53h1.723V11.58c.166-.096.335-.186.515-.264.242-.107.484-.2.726-.28.242-.078.484-.137.726-.176.242-.04.476-.06.701-.06.315 0 .586.043.81.127.226.085.412.211.558.38.146.169.253.383.321.642s.101.563.101.912v5.134h1.723v-5.489c0-.765-.107-1.39-.32-1.874-.215-.485-.536-.845-.964-1.081Zm11.468-4.29v12.734h-1.402l-.211-.78c-.127.093-.253.18-.38.257a4.61 4.61 0 0 1-1.174.523 4.675 4.675 0 0 1-1.275.169c-.777 0-1.444-.172-2.001-.515a3.36 3.36 0 0 1-1.284-1.461c-.298-.63-.447-1.38-.447-2.246 0-1.014.197-1.872.591-2.576.394-.704.915-1.241 1.562-1.613a4.154 4.154 0 0 1 2.103-.557 5.823 5.823 0 0 1 2.145.388c.017.006.033.015.05.023v-4.11l1.723-.236Zm-1.723 10.845v-5.204c-.087-.031-.18-.068-.261-.093a5.122 5.122 0 0 0-1.596-.245c-.586 0-1.09.121-1.512.363a2.381 2.381 0 0 0-.971 1.064c-.225.467-.338 1.05-.338 1.748s.101 1.258.304 1.714c.203.456.496.794.878 1.014.383.22.845.329 1.385.329.361 0 .763-.082 1.208-.245.284-.104.585-.256.903-.445Z"/></g><defs><clipPath id="a"><path fill="#fff" d="M39 5h72v14H39z"/></clipPath></defs></svg>
